X:3
T:Le Chant des Auvergnats
M:C
L:1/8
C:J.Canteloube
N:Mouvt de marche anim. Avec elan et liert
N:La Bourre 4th edition 1929, page 19
Z:Steve Mansfield www.lesession.co.uk April 2012
K:G
!f!D > A |: G4 A2c2 | !crescendo(!B3dc3e !crescendo)!|
(dc/B/) A4 "moins" D !f!B | A4 d2c2 |  (B3 A) G2"cresc"d2  |
c3 !diminuendo(!e d c B > !diminuendo)!d | A6 "Largement"!crescendo(!D2 | G2 A2!crescendo)! !tenuto!c2-B > !tenuto!A ||
[K:C]
G4 !fine! z2 !p!"couplet".|G F | E3EF2A2 | (G2(3GFE) D2 D2 |
F2!crescendo(!G2A2 B c!crescendo)! | !diminuendo(!B6 c B !diminuendo)! | (A3G) F2 "cresc"c c |
(BA) G4 G A | !diminuendo(!(d3 c) B A > !diminuendo)!G | A6 D > A !D.C.!:|

